packages/calcite-ui-icons/icons/organize-template-24.svg

<?xml version="1.0" encoding="UTF-8"?><svg id="icons" xmlns="http://www.w3.org/2000/svg" viewBox="0 0 24 24"><defs><style>.cls-1{fill:none;}</style></defs><path d="M8,8h-3v-1h3v1ZM5,10h3v-1h-3v1ZM8,15H1.5c-.27612,0-.5-.22388-.5-.5V5h7.07269c.08673-.37207.2569-.70868.48523-1H1v-1.5c0-.27618.22388-.5.5-.5h16c.27612,0,.5.22382.5.5v.5h1v-.5c0-.82843-.67157-1.5-1.5-1.5H1.5c-.82843,0-1.5.67157-1.5,1.5v12c0,.82843.67157,1.5,1.5,1.5h6.5v-1ZM5,12h3v-1h-3v1ZM4,7h-1v1h1v-1ZM3,12h1v-1h-1v1ZM4,9h-1v1h1v-1ZM24,5.57971v16.83972c0,.87292-.70764,1.58057-1.58051,1.58057h-11.8421c-.87115,0-1.57739-.70624-1.57739-1.57739V5.58508c0-.87543.70966-1.58508,1.58508-1.58508h11.83521c.86884,0,1.57971.71088,1.57971,1.57971ZM23,5.7887c0-.43561-.35309-.7887-.7887-.7887h-11.42181c-.43604,0-.78949.35345-.78949.78943v16.42188c0,.43555.35309.7887.7887.7887h11.4234c.43518,0,.7879-.35278.7879-.7879V5.7887ZM17,9h4v-1h-4v1ZM17,14h4v-1h-4v1ZM12,7h4v4h-4v-4ZM13,10h2v-2h-2v2ZM12,12h4v4h-4v-4ZM13,15h2v-2h-2v2ZM12,17h4v4h-4v-4ZM13,20h2v-2h-2v2ZM17,19h4v-1h-4v1Z"/><rect class="cls-1" width="24" height="24"/></svg>

<svg xmlns="http://www.w3.org/2000/svg" viewBox="0 0 24 24"><path d="M8 8H5V7h3zm-3 2h3V9H5zm3 5H1.5a.5.5 0 0 1-.5-.5V5h7.073c.086-.372.257-.709.485-1H1V2.5a.5.5 0 0 1 .5-.5h16a.5.5 0 0 1 .5.5V3h1v-.5A1.5 1.5 0 0 0 17.5 1h-16A1.5 1.5 0 0 0 0 2.5v12A1.5 1.5 0 0 0 1.5 16H8zm-3-3h3v-1H5zM4 7H3v1h1zm-1 5h1v-1H3zm1-3H3v1h1zm20-3.42v16.84A1.58 1.58 0 0 1 22.42 24H10.576A1.577 1.577 0 0 1 9 22.423V5.585C9 4.71 9.71 4 10.585 4H22.42c.87 0 1.58.71 1.58 1.58m-1 .209A.79.79 0 0 0 22.211 5H10.79a.79.79 0 0 0-.789.79v16.42c0 .436.353.789.789.789h11.423a.79.79 0 0 0 .788-.788zM17 9h4V8h-4zm0 5h4v-1h-4zm-5-7h4v4h-4zm1 3h2V8h-2zm-1 2h4v4h-4zm1 3h2v-2h-2zm-1 2h4v4h-4zm1 3h2v-2h-2zm4-1h4v-1h-4z"/><path d="M0 0h24v24H0z" style="fill:none"/></svg>
